X:109
T:Real Scotch Polkas(2). Le4.109, The
M:2/4
L:1/8
Q:1/4=90
N:Note in modern hand at side of page "Lea Rig"
C:"Lea Rig"
B:L.Leadley MS#4 c1850
Z:Village Music Project, 2016 Ruairidh Greig
K:G
b/>a/|{ga}.b..d.d.e|{b/}g/>f/g/>a/ .g.b|a/^g/a/b/ c'/b/a/=g/|{ga}.b.e.e (b/>a/)|
{ga}.b.d.d.e|{ga}(g/f/g/a/) g(g/f/)|e>d (e/f/g/e/)|.d.G.GH"_Fine":|
d|(e/d/e/f/) gB|(c/B/c/d/) e^G|(A/^G/A/B/ c/B/A/=G/)|{GA}BEE b/>a/|
{ga}bdde|{a}(g/f/g/a/) g(g/f/)|ed e/f/g/e/|.d.G.G||
[B:L.Leadley MS#4 c1850
Z:Village Music Project, 2016 Ruairidh Greig
K:C]g|c>d.e.d|.c.A.A B/c/|G>A .G(F/E/)|FDD (c/d/)|
e>d .c/.B/.A/.G/|.A.B/.c/ .G.F/.E/|.F.A .f.d|.g.c.c G|
c/B/c/d/ c/B/A/G/|.A(F/G/) .A/.G/.F|d/^c/d/e/ d/=c/B/A/|.B.G/.A/ .B/.A/.G|
e>d "_quavers in MS".c/.B/.A/.G/|.A.B/.c/ .G.F/E/|.F.A .f.d|.g.c.c"_D.Capo"|]

